X: 1
T: Enkronaspolskan (Harmony)
M: 9/8
L: 1/8
Q: 3/8=128
C: Trad. Sweden
R: Polska
K: Am
A2,A3B c2d|B3 e2d c2B|A2B cde ^fde|c2B cde cdB|\
A2A2B2 c2d|B3 e2^f e2d|c2B cde ^fde|cdB A3-A2B:|
|:A3-A2B cde|^f2e2ce d2c|B2A Bc2 d2e|c2B cde cdB|\
A2B cde ^f2f-|^f2e2ce d2c|B2A Bc2 d2e|cdB A3-A2B:|
